X: 100
T: Argyle Bowling Green
T: Reel, C
L: 1/16
M: C|
K: C
|: E2| C4c4 c2d2e2d2| c2G2A2c2 G2c2E2D2| C4c4 c2d2e2d2| c2A2c2E2 D4D2:| 
|: A2| G2E2c2E2 G2E2E2A2| G2E2c2E2 G4G2[1 A2| G2E2c2E2 G2E2E2G2| A2c2G2E2 D4D2:| 
[2 G2| A2B2c2B2 A2G2E2G2| A2c2G2E2 D4D2|] 
D: Wendy MacIsaac, That's What You Get, WMT004
D: Theresa, Donald and Marie MacLellan, The MacLellan Trio, Breton Books and Music
B: Skye Collection
